X:1
T:Mrs. MacDonald's Lament
M:3/4
L:1/4
K:G
 B/2B/2| B2 A| G2 F/2G/2| A2 G| F2 D| D E F| G A B| c c3/2 B/2| A3|\
 B B3/2 B/2| B/2 c3/2 d| d/2 c3/2 c| c c c| B z A/2G/2| F G A| G3|\
 z2 d/2d/2| e2 e| e2 e| e/2 d3/2 c| d3| z2 e| e/2 e3/2 e| e2 e/2e/2|\
 e/2 d3/2 c| d3| z3| z2 A/2A/2| B B3/2 B/2| B2 B| A2 B| c c3/2 c/2|\
 B A3/2 G/2| F2 A| G3| z2||
